X:19164
T:Y'en a 10 chez nous - rond de St-Vincent
C:Perroches: Midi Breton 
M:4/4
L:1/8
K:G
DD|G2A2 GccB|ABA2 GFED|G2A2 GccB|ABA2 G2:|
|:GG|ABcA BGGG|GGFE D2GG|ABcA BGGG|FGAF G2:|
